X:14
T:Bally's
Z: id:dc-jig-101
M:6/8
L:1/8
K:G Major
D|GFG DGA|BAG FEF|GAG BGD|GFG G2A|Bcd egf|!
ecA BdB|AGA Bgf|edB ABd|ede dBA:|!
Bee deg|fga dfe|def gfg|afd d3:|!
e|fga|fed ega|f3 gfe|d4 deg|!
deg faa|f3 gfe|dcA AFD|!
BGG BAG|AFD GAF|EFG FAF|EDE D2:|!